!!!!SEGMENT: pl-kk--kk-i-1--025_anonim--communio-dilexisti-iustitiam.krn
!!!cenid: 15xx:738
!!!COM: Anonim
!!!COM-rismID:
!!!CDT:
!!!CNT:
!!!OTL: Communio/Dilexisti iustitiam
!!!PDT:
!!!AGN:
!!!SMS-siglum: PL-Kk
!!!SMS-shelfmark: Kk.I.1
!!!SMS-shelfwork: 025 W
!!!SMS-variant:
!!!SMS-altvar:
!!!NIFC-rismSourceID: 300257979
!!!NIFC-islandoraID: pl-kk:1
!!!URL-pdf-islandora: https://repozytorium.nifc.pl/islandora/object/pl-kk%3A1/datastream/PDF/view
!!!URL-scan: https://polish.musicsources.pl/pl/lokalizacje/galeria/rekopisy/5736 @EN{Scan on Polish Music Herritage in Open Access Website} @PL{Skany w portalu Dziedzictwo Muzyki Polskiej w otwartym dostępie}
!!!ONB-nifc: UWAGA: Cantus (s. 112v-113r, skan 0115), Altus (s. 107v-108r, skan 0301), Tenor (s. 98r-v, skan 0488-0489), Bassus (s. 102r-103r, skan 0664-0665).
!!!AIN: 1 alto 1 bass 1 soprn 1 tenor
!!!key:
**kern	**text	**kern	**text	**kern	**text	**kern	**text
*part4	*part4	*part3	*part3	*part2	*part2	*part1	*part1
*staff4	*staff4	*staff3	*staff3	*staff2	*staff2	*staff1	*staff1
*I"BASSVS	*	*I"TENOR	*	*I"ALTVS	*	*I"CANTVS	*
*I'B	*	*I'T	*	*I'A	*	*I'C	*
*Ibass	*	*Itenor	*	*Ialto	*	*Isoprn	*
*ICvox	*	*ICvox	*	*ICvox	*	*ICvox	*
*clefF4	*	*clefC4	*	*clefC3	*	*clefC3	*
*k[]	*	*k[]	*	*k[]	*	*k[]	*
*C:	*	*C:	*	*C:	*	*C:	*
*M2/1	*	*M2/1	*	*M2/1	*	*M2/1	*
*met(C|)	*	*met(C|)	*	*met(C|)	*	*met(C|)	*
*all\middle	*	*all\middle	*	*all\middle	*	*all\middle	*
=1-	=1-	=1-	=1-	=1-	=1-	=1-	=1-
1r	.	1G	Di-	1d	Di-	1g	Di-
1C	Di-	1G	-le-	2.c/	-le-	2g\	-le-
.	.	.	.	.	.	1g\	-xi-
.	.	.	.	8B/L	.	.	.
.	.	.	.	8A/J	.	.	.
=2-	=2-	=2-	=2-	=2-	=2-	=2-	=2-
*	*	*lig	*	*	*	*	*
1C	-le-	1c	-xi-	2G/	.	.	.
.	.	.	.	1c	.	4f\	.
.	.	.	.	.	.	4e\	.
*lig	*	*	*	*	*	*	*
1G	-xi-	1d	.	.	.	2d\	.
.	.	.	.	2B/	-xi-	2g\	.
*	*	*Xlig	*	*	*	*	*
=3-	=3-	=3-	=3-	=3-	=3-	=3-	=3-
1A	.	1c	.	1c	-ſti	2e\	.
.	.	.	.	.	.	2.a\	.
*Xlig	*	*lig	*	*	*	*	*
1F	.	1c	-ſti	1A	.	.	.
.	.	.	.	.	.	4g\	.
.	.	.	.	.	.	4f\	.
.	.	.	.	.	.	4e\	.
=4-	=4-	=4-	=4-	=4-	=4-	=4-	=4-
*lig	*	*	*	*	*	*	*
1G	.	1G	.	1B	.	2d/	.
.	.	.	.	.	.	1g	.
*	*	*Xlig	*	*	*	*	*
1D	.	1A	.	2A/	.	.	.
.	.	.	.	1d\	.	2f\	.
*Xlig	*	*	*	*	*	*	*
=5-	=5-	=5-	=5-	=5-	=5-	=5-	=5-
*lig	*	*	*	*	*	*	*
*	*	*	*	*	*	*custos:e	*
1E	.	1G	.	.	.	2g\	.
!	!	!	!	!	!	!LO:LB:g=original	!
.	.	.	.	2c/	.	2e\	-ſti
1D	.	1F	.	1d	.	1f	iu-
*Xlig	*	*	*	*	*	*	*
=6-	=6-	=6-	=6-	=6-	=6-	=6-	=6-
2C/	-ſti	1c	iu-	2G/	iu-	4e\	.
.	.	.	.	.	.	4d\	.
1F	iu-	.	.	2.A/	-ſti-	4c/	.
.	.	.	.	.	.	4B/	.
*	*	*lig	*	*	*	*	*
.	.	1c	-ſti-	.	.	4A/	.
*	*	*	*	*custos:G	*	*	*
.	.	.	.	4G/	.	4B/	.
*	*	*	*	*clefC4	*	*	*
!	!	!	!	!LO:LB:g=original	!	!	!
2E\	-ſti-	.	.	1G/	.	1c\	-ſti-
=7-	=7-	=7-	=7-	=7-	=7-	=7-	=7-
1D	-ci-	1d	.	.	.	.	.
.	.	.	.	2F/	.	2B/	.
*	*	*Xlig	*	*	*	*	*
*	*	*lig	*	*	*	*	*
2C/	-a(m),	1e	.	2G/	.	4c/	.
.	.	.	.	.	.	4d\	.
1c\	iŭ-	.	.	2C/	-ci-	4e\	.
.	.	.	.	.	.	4f\	.
=8-	=8-	=8-	=8-	=8-	=8-	=8-	=8-
.	.	1d	.	1G	-am,	2g\	.
*custos:A	*	*	*	*	*	*	*
2B\	-ſti-	.	.	.	.	2g\	-ci-
*	*	*Xlig	*	*	*	*	*
*clefF3	*	*	*	*	*ij	*	*
!LO:PB:g=original	!	!	!	!	!	!	!
1A	.	1e	.	2r	.	1c	-am,
.	.	.	.	2c\	iu-	.	.
=9-	=9-	=9-	=9-	=9-	=9-	=9-	=9-
*	*	*lig	*	*	*	*	*ij
2.G\	-ci-	1B	-ci-	2d\	.	2r	.
.	.	.	.	2B/	-ſti-	1g	iu-
4F/	-am	.	.	.	.	.	.
1D	.	1d	.	1A	.	.	.
.	.	.	.	.	.	2f\	.
*	*	*Xlig	*	*	*	*	*
=10-	=10-	=10-	=10-	=10-	=10-	=10-	=10-
*	*	*custos:c	*	*	*	*	*
2r	.	1c	.	1A	-ci-	2e\	-ſti-
*	*	*	*	*	*	*custos:g	*
2F/	iu-	.	.	.	.	2f\	.
*	*	*lig	*	*	*	*	*
!	!	!LO:PB:g=original	!	!	!	!LO:LB:g=original	!
2E/	-ſti-	1c	-am	2G/	-am	2g\	-ci-
*	*	*	*	*	*Xij	*	*
2F/	-ti-	.	.	2A/	et	1f\	-am
*	*	*	*	*	*	*	*Xij
=11-	=11-	=11-	=11-	=11-	=11-	=11-	=11-
1G	-a(m)	1B	.	2.B\	o-	.	.
.	.	.	.	.	.	2e\	et
.	.	.	.	4c\	.	.	.
*	*	*Xlig	*	*	*	*	*
2F\	et	1A	et	2d\	.	2f\	o-
1F\	o-	.	.	4c\	.	1a\	-di-
.	.	.	.	4B\	.	.	.
=12-	=12-	=12-	=12-	=12-	=12-	=12-	=12-
*	*	*lig	*	*	*	*	*
.	.	1A	o-	1c	.	.	.
4E/	.	.	.	.	.	4g\	.
4D/	.	.	.	.	.	4f\	.
2C/	.	1e	.	1c	-di-	2.g\	.
2.C/	-di-	.	.	.	.	.	.
.	.	.	.	.	.	4f\	.
*	*	*Xlig	*	*	*	*	*
=13-	=13-	=13-	=13-	=13-	=13-	=13-	=13-
*	*	*lig	*	*	*	*	*
.	.	1e	-di-	1c	-ſti	4e\	.
4D/	.	.	.	.	.	4d\	.
4E/	.	.	.	.	.	1c	.
4F/	.	.	.	.	.	.	.
1G	.	1d	.	2r	.	.	.
*	*	*	*	*	*ij	*	*
*	*	*	*	*custos:C	*	*	*
.	.	.	.	1G/	et	2B/	.
*	*	*Xlig	*	*	*	*	*
=14-	=14-	=14-	=14-	=14-	=14-	=14-	=14-
*	*	*lig	*	*	*	*	*
!	!	!	!	!LO:LB:g=original	!	!	!
2C/	.	1e	-ſti	.	.	1c	-ſti,
1c	.	.	.	2C/	o-	.	.
.	.	1d	.	1G	-di-	2r	.
2B\	.	.	.	.	.	2g\	i-
*	*	*Xlig	*	*	*	*	*
=15-	=15-	=15-	=15-	=15-	=15-	=15-	=15-
*custos:C	*	*	*	*	*	*	*
2c\	-ſti	1e	i-	2C/	.	2g\	-ni-
*clefF4	*	*	*	*	*	*	*
!LO:LB:g=original	!	!	!	!	!	!	!
2.C/	i-	.	.	2c\	-ſti	1g	-qui-
*	*	*	*	*	*Xij	*	*
!	!	!LO:SIC:v:l:s=-ni-	!	!	!	!	!
.	.	1c	-niq-	2.G/	i-	.	.
4D/	.	.	.	.	.	.	.
4E\	.	.	.	.	.	4f\	.
4F\	.	.	.	4F/	-ni-	4e\	.
=16-	=16-	=16-	=16-	=16-	=16-	=16-	=16-
1G	-ni-	1B	.	4G/	.	2d\	.
.	.	.	.	4A/	.	.	.
.	.	.	.	2B/	.	2e\	-ta-
*	*	*lig	*	*	*	*	*
*	*	*	*	*	*	*custos:g	*
2F\	-qui-	1c	.	2A/	.	2f\	-te(m)
*	*	*	*	*	*	*	*ij
!	!	!	!	!	!	!LO:LB:g=original	!
2E\	.	.	.	2G/	-qui-	1g\	i-
=17-	=17-	=17-	=17-	=17-	=17-	=17-	=17-
1D	-ta-	1d	.	1A	-ta-	.	.
.	.	.	.	.	.	2f\	.
*	*	*Xlig	*	*	*	*	*
2GG/	-tem,	1B	-qui-	2G/	-tem,	2g\	-ni-
*	*ij	*	*	*	*	*	*
2G\	i-	.	.	2G/	i-	2d/	-qui-
=18-	=18-	=18-	=18-	=18-	=18-	=18-	=18-
*	*	*lig	*	*	*	*	*
2F\	-ni-	1c	-ta-	2A/	-ni-	2f\	-ta-
2C/	.	.	.	2G/	-qui-	2e\	.
2D/	.	1A	.	1F	-ta-	2d\	.
1F\	.	.	.	.	.	4c/	.
.	.	.	.	.	.	4B/	.
*	*	*Xlig	*	*	*	*	*
=19-	=19-	=19-	=19-	=19-	=19-	=19-	=19-
*	*	*lig	*	*	*	*	*
.	.	1G	.	1C	-te(m),	1c	.
2E\	-qui-	.	.	.	.	.	.
1F	-ta-	1c	.	2r	.	2A/	-tem
*	*	*	*	*	*	*	*Xij
.	.	.	.	2c\	pro-	1a\	prop-
*	*	*Xlig	*	*	*	*	*
=20-	=20-	=20-	=20-	=20-	=20-	=20-	=20-
1F	-tem	1c	-tem	2.A\	.	.	.
.	.	.	.	.	.	2f\	.
*	*Xij	*	*	*	*	*	*
*	*	*	*	*custos:c	*	*	*
.	.	.	.	4B\	-pte-	.	.
*	*	*lig	*	*	*	*	*
!	!	!	!	!LO:LB:g=original	!	!	!
2E\	pro-	1c	prop-	2c\	.	2g\	-ter-
2.F\	.	.	.	2A/	-re-	2.a\	-e-
=21-	=21-	=21-	=21-	=21-	=21-	=21-	=21-
.	-­-	1A	.	0d	-a,	.	.
4E\	-pte-	.	.	.	.	4g\	-a
4D\	.	.	.	.	.	4f\	.
*custos:D	*	*	*	*	*	*	*
4C/	.	.	.	.	.	4e\	.
*	*	*Xlig	*	*	*	*	*
*	*	*lig	*	*	*	*	*
!LO:LB:g=original	!	!	!	!	!	!	!
1D	.	1A	-ter-	.	.	1f	.
=22-	=22-	=22-	=22-	=22-	=22-	=22-	=22-
2.C/	.	1c	.	1.G	un-	2.e\	.
4D/	.	.	.	.	.	4f\	.
*	*	*Xlig	*	*	*	*	*
*	*	*	*	*	*	*custos:a	*
2E\	.	1c	-e-	.	.	2g\	.
!	!	!	!	!	!	!LO:PB:g=original	!
1F\	.	.	.	2F/	-xit	2a\	.
=23-	=23-	=23-	=23-	=23-	=23-	=23-	=23-
*	*	*custos:A	*	*	*	*	*
.	.	1c	-a	1C	te	1g	.
2E\	-re-	.	.	.	.	.	.
*	*	*lig	*	*	*	*	*
!	!	!LO:LB:g=original	!	!	!	!	!
1F	-a	1A	un-	2r	.	1c	.
.	.	.	.	2F/	un-	.	.
=24-	=24-	=24-	=24-	=24-	=24-	=24-	=24-
2.D/	un-	1d	.	2.F/	-xit	2.f\	.
4E\	.	.	.	4G/	.	4e\	un-
*	*	*Xlig	*	*	*	*	*
2F\	.	1d	-xit	2A/	.	2d/	-xit
1G\	.	.	.	2G/	.	4c/	.
.	.	.	.	.	.	4B/	.
=25-	=25-	=25-	=25-	=25-	=25-	=25-	=25-
.	.	1d	te	2D/	te	2A/	.
2F\	.	.	.	4d\	.	2A/	.
.	.	.	.	4c\	.	.	.
*	*	*lig	*	*	*	*	*
1G	-xit	1d	de-	4B\	de-	2G/	te
.	.	.	.	4A\	.	.	.
.	.	.	.	1G/	.	2.g\	de-
=26-	=26-	=26-	=26-	=26-	=26-	=26-	=26-
2C/	te	1c	.	.	.	.	.
.	.	.	.	.	.	4f\	.
2.C/	de-	.	.	2A/	.	4e\	.
.	.	.	.	.	.	4d\	.
*	*	*Xlig	*	*	*	*	*
*	*	*lig	*	*	*	*	*
.	.	1e	.	2G/	-us,	2c/	.
4D/	-us	.	.	.	.	.	.
2E\	.	.	.	1c\	.	2g\	.
=27-	=27-	=27-	=27-	=27-	=27-	=27-	=27-
2F\	.	1d	.	.	.	2a\	.
*	*	*	*	*custos:A	*	*	*
2G\	.	.	.	2B/	.	1g	.
*	*	*Xlig	*	*	*	*	*
*	*	*lig	*	*	*	*	*
*custos:G	*	*	*	*	*	*	*
!	!	!	!	!LO:PB:g=original	!	!	!
1A	.	1c	.	2A/	.	.	.
.	.	.	.	1c\	.	2f\	.
=28-	=28-	=28-	=28-	=28-	=28-	=28-	=28-
!LO:LB:g=original	!	!	!	!	!	!	!
1G	.	1d	.	.	.	1g	.
.	.	.	.	2B/	.	.	.
*	*	*Xlig	*	*	*	*	*
1C	.	1c	.	2c\	.	1e	-us
.	.	.	.	2G/	de-	.	.
=29-	=29-	=29-	=29-	=29-	=29-	=29-	=29-
*	*	*	*	*	*	*custos:f	*
1F	.	1c	-us,	1A	-us	0r	.
2E\	de-	1c	de-	2G/	.	.	.
1F\	.	.	.	1A\	.	.	.
=30-	=30-	=30-	=30-	=30-	=30-	=30-	=30-
!	!	!	!	!	!	!LO:LB:g=original	!
.	.	1c	-us	.	.	1f	.
4E\	.	.	.	4G/	.	.	.
4D\	.	.	.	4F/	.	.	.
*	*	*lig	*	*	*	*	*
1C	-us	1c	tu-	2G/	.	2.e\	de-
.	.	.	.	2A/	.	.	.
.	.	.	.	.	.	4d\	-us
=31-	=31-	=31-	=31-	=31-	=31-	=31-	=31-
1C	tu-	1e	.	2G/	tu-	2c/	.
.	.	.	.	4c\	.	2g\	tu-
.	.	.	.	4B\	.	.	.
*	*	*Xlig	*	*	*	*	*
*	*	*lig	*	*	*	*	*
2.D/	.	1d	.	4A/	.	2f\	.
.	.	.	.	4G/	.	.	.
.	.	.	.	2.F/	.	1a\	.
4E\	.	.	.	.	.	.	.
=32-	=32-	=32-	=32-	=32-	=32-	=32-	=32-
2F\	.	1c	.	.	.	.	.
.	.	.	.	4G/	.	.	.
4E\	.	.	.	4A/	.	4g\	.
*	*	*	*	*custos:c	*	*	*
4D/	.	.	.	4B/	.	4f\	.
*	*	*Xlig	*	*	*	*	*
*	*	*lig	*	*	*	*	*
!	!	!	!	!LO:LB:g=original	!	!	!
1C	.	1e	.	1c	.	2e\	.
.	.	.	.	.	.	2g\	.
=33-	=33-	=33-	=33-	=33-	=33-	=33-	=33-
1D	.	1d	.	2.A/	.	1f	.
.	.	.	.	4G/	.	.	.
*	*	*Xlig	*	*	*	*	*
*	*	*lig	*	*	*	*	*
*custos:A	*	*	*	*	*	*	*
2AA/	-ŭs	1c	.	4A/	.	1e	-us,
.	.	.	.	4B\	.	.	.
!LO:PB:g=original	!	!	!	!	!	!	!
4A\	tu-	.	.	2c\	.	.	.
4G\	.	.	.	.	.	.	.
=34-	=34-	=34-	=34-	=34-	=34-	=34-	=34-
4F\	.	1d	.	2.A\	.	2r	.
4E\	.	.	.	.	.	.	.
2D/	.	.	.	.	.	2f\	.
.	.	.	.	4B\	.	.	.
*	*	*Xlig	*	*	*	*	*
2E\	.	1c	.	2c\	.	2g\	.
2F\	.	.	.	2A/	.	2a\	.
=35-	=35-	=35-	=35-	=35-	=35-	=35-	=35-
1.G	.	1B	.	1.B	.	1d	.
.	.	0.Bl;;\	-us,	.	.	1.g	.
2E/	.	.	.	2G/	-us	.	.
=36-	=36-	=36-	=36-	=36-	=36-	=36-	=36-
0El;;\	-us,	.	.	0Gl\;	.	.	.
.	.	.	.	.	.	2e\	tu-
.	.	.	.	.	.	1e;<l	-us,
==	==	==	==	==	==	==	==
*-	*-	*-	*-	*-	*-	*-	*-
!!!system-decoration: [(s1,s2,s3,s4)]
!!!RDF**kern: l = terminal long
!!!RDF**kern: > = above
!!!RDF**kern: < = below
!!!ENC: Mateusz Solarz
!!!END: 2022-02-25
!!!ENC: Kamil Watkowski
!!!END: 2022-03-12
